app/assets/images/payment_icons/aeropay.svg

<svg xmlns="http://www.w3.org/2000/svg" width="38" height="24" fill="none" aria-labelledby="pi-aeropay" role="img" viewBox="0 0 38 24"><title id="pi-aeropay">Aeropay</title><path fill="#fff" d="M0 0h38v24H0z"/><path fill="#24C3D2" d="M13.693 12.474c.723-.392 9.478-5.533 9.784-5.692.086-.086.245-.123.368-.184.122-.062.269-.025.368.024.169.042.122.208.085.331-.06.086-.122.208-.245.269-.159.099-9.512 5.849-10.051 6.18-.368.245-.699.49-.723.968-.024.246.086.43.245.601.147.122.406.175.601.208s.472.039.68.029c.813-.04 1.237.445 1.273.499.724.849.794 1.279 1.119 1.991.042.158.516 1.052 1.091 1.079l-.005.003.183.006c.454.025.846-.392 1.128-.784 1.213-1.57 7.796-12.186 8.226-12.885.146-.245.122-.699-.306-.76-.294-.061-14.102 3.954-14.919 4.195l-1.094.353c-.086.025-.184.061-.27.086l-.254.088c-.181.064-.354.115-.52.187a9 9 0 0 0-1.138.423c-.098.061-.22.123-.27.209-.086.086-.087.226-.087.348 0 .27.238.486.52.598.367.147.469.213 1.127.429.732.241 1.266.411 1.711 1.041.135.19.259.334.491.368.184.026.367 0 .552-.061z"/></svg>

<svg xmlns="http://www.w3.org/2000/svg" width="38" height="24" viewBox="0 0 38 24" fill="none" aria-labelledby="pi-aeropay" role="img"><title id="pi-aeropay">Aeropay</title><rect width="38" height="24" fill="white"/><path d="M13.693 12.474C14.416 12.082 23.171 6.941 23.477 6.782C23.563 6.696 23.722 6.659 23.845 6.598C23.967 6.536 24.114 6.573 24.213 6.622C24.382 6.664 24.335 6.83 24.298 6.953C24.238 7.039 24.176 7.161 24.053 7.222C23.894 7.321 14.541 13.071 14.002 13.402C13.634 13.647 13.303 13.892 13.279 14.37C13.255 14.616 13.365 14.8 13.524 14.971C13.671 15.093 13.93 15.146 14.125 15.179C14.319 15.212 14.597 15.218 14.805 15.208C15.618 15.168 16.042 15.653 16.078 15.707C16.802 16.556 16.872 16.986 17.197 17.698C17.239 17.856 17.713 18.75 18.288 18.777L18.283 18.78L18.466 18.786C18.92 18.811 19.312 18.394 19.594 18.002C20.807 16.432 27.39 5.816 27.82 5.117C27.966 4.872 27.942 4.418 27.514 4.357C27.22 4.296 13.412 8.311 12.595 8.552L11.501 8.905C11.415 8.93 11.317 8.966 11.231 8.991L10.977 9.079C10.796 9.143 10.623 9.194 10.457 9.266C10.069 9.38242 9.68886 9.52371 9.319 9.689C9.221 9.75 9.099 9.812 9.049 9.898C8.963 9.984 8.962 10.124 8.962 10.246C8.962 10.516 9.2 10.732 9.482 10.844C9.849 10.991 9.951 11.057 10.609 11.273C11.341 11.514 11.875 11.684 12.32 12.314C12.455 12.504 12.579 12.648 12.811 12.682C12.995 12.708 13.178 12.682 13.363 12.621L13.693 12.474V12.474Z" fill="#24C3D2"/></svg>
